X:1
T:Elsie Marley
M:6/8
L:1/8
S:Gow - 4th Repository  (1817)
Z:AK/Fiddler's Companion
K:Gmix=f
|: (B>AB) G2G | G2(g g)dc | (B>AB) G2G | F2(f f)cA | (B>AB) G2G | G2(g g)dB | cac BgB | A2(f f)cA :|
|: Bcd ded | d2(g g)dB | Bcd dcB | A2(f f)cA | Bcd ded | d2(g g)dB | cac BgB | A2(f f)cA :|
|: G2(g g)dB | gdB gdB | F2 (f f)cA | fcA fcA | G2(g g)dB | gdB gdB | cac BgB | A2(f f)cA :|
